basket-check.svg

<svg fill="currentColor" viewBox="0 0 24 24"><path d="m21.63 16.27-3.87 3.9-1.35-1.37L15 20.22 17.75 23l5.28-5.32zM13 20c0-3.31 2.69-6 6-6 1 0 1.92.24 2.74.67l1.22-4.38L23 10c0-.55-.45-1-1-1h-4.58l-4.59-6.56a.997.997 0 0 0-1.65-.01L6.58 9H2c-.55 0-1 .45-1 1l.1.44 2.61 9.46c.33.65 1.01 1.1 1.79 1.1h7.59c-.05-.33-.09-.66-.09-1M12 4.74 15 9H9zM10 15c0-1.1.9-2 2-2s2 .9 2 2-.89 2-2 2-2-.89-2-2"/></svg>

<svg  viewBox="0 0 24 24" fill="currentColor"><path  d="M21.63 16.27L17.76 20.17L16.41 18.8L15 20.22L17.75 23L23.03 17.68L21.63 16.27M13 20C13 16.69 15.69 14 19 14C20 14 20.92 14.24 21.74 14.67L22.96 10.29L23 10C23 9.45 22.55 9 22 9H17.42L12.83 2.44C12.65 2.17 12.34 2 12 2S11.36 2.17 11.18 2.43L6.58 9H2C1.45 9 1 9.45 1 10L1.1 10.44L3.71 19.9C4.04 20.55 4.72 21 5.5 21H13.09C13.04 20.67 13 20.34 13 20M12 4.74L15 9H9L12 4.74M10 15C10 13.9 10.9 13 12 13S14 13.9 14 15 13.11 17 12 17 10 16.11 10 15Z"/></svg>
